X: 1941
T: Visâlinle Safâyab Et
C: Muallim İsmail Hakkı Bey
O: Turkey
F: http://compmusic.upf.edu/node/140
N: hisarbuselik--sarki--curcuna--visalinle_safayab--muallim_ismail_hakki_bey
N: makam= hisarbuselik
N: form= sarki
N: usul= curcuna = 10/8
M: 10/8
L: 1/16
K: C _1/4B   
Q: 1/4=216
%%MIDI tuningsystem comma53
z4 e2^d2 f2e2 d2c2 =B2A2  | A2=B2 c2^d2 e2d2 f2{f}e6  | \
w:   |   | 
z4 e2f2 ^g2{=b}a2 g2f4e2  | 
w:   | 
e4 .=b2.a2 .b2^g2 f2e6  | z4 e2f2 e2d2 {e}^3/4c2d3ece  | \
w:   |   | 
d^3/4c=BA d2e2 d2=c2 B2c3dBd  | 
w:   | 
c=BAG c2d2 c2B2 A2B4^GF  | E4 c2=B2 A2A2 ^G2A6  | \
w:   |   | 
z4 e2^d2 f2e2 d2c2 =B2A2  | 
w:   | 
A2=B2 c2^d2 e2d2 f2{f}e6  | z4 e2f2 ^g2{=b}a2 g2f4e2  | \
w:   |   | 
e4 .=b2.a2 .b2^g2 f2e6  | 
w:   | 
z4 e2f2 e2d2 {e}^3/4c2d3ece  | d^3/4c=BA d2e2 d2=c2 B2c3dBd  | 
w:   |   | 
c=BAG c2d2 c2B2 A2B4^GF  | E4 c2=B2 A2A2 ^G2A6  | \
w:   |   | 
z4 e2e4^d2 f2e6  | 
w:  Vi sâ lin *  le   | 
f4 ^g6a4g2 f2e2  | ^g2a2 g2f2 e2e2 ^d2c2 =B2A2  | \
w:  sa fâ yâb  et   |  a *  man  *  *  gel    | 
A4 e2e4^d2 f2e6  | 
w:  *  Vi sâ lin *  le   | 
f4 ^g6a4g2 f2e2  | ^g2a2 g2f2 e2e2 ^d2{f}e6  | \
w:  sa fâ yâb  et   |  a *  man  *  *  gel    | 
z4 ^g2f2 e2^d2 f2e6  | 
w:  SAZ  | 
z4 e2.f4.e4.f6  | e2g2 f2f2 e2e2 f2e4d2  | \
w:  Gel_ ar tık  gel   |  gel  *  *  ey  *  rûh_ *  i   | 
d2f2 e4 d2c3=Bc4cd  | 
w:  re *  vân  *  gel   *  *  SAZ  | 
e4 d2e4c4d6  | c2d2 e2f2 g2f2 e2d2 c2=B2  | \
w:  *  Gel  ar tık  gel   |  gel  *  ey  *  *  rûh_ *  i   | 
c2=B2 A4 ^G2A8-A2  | 
w:  re *  vân  *  gel    | 
A3=B c2d2 e2f2 ^g2a2 =b2g2  | a4 a2a4^g4a6  | \
w:  SAZ  |  *  Ha râb_ ı  fir  | 
a4 a6a3{=b}^gf2 e2f2  | 
w:  ka tin dir  *  *  cism_  | 
^g4 g6a2 {=b}g2f2 e2{f}d2  | z4 e2f4e4f6  | \
w:  ü  cân  gel    |  Ha râb_ ı  fir  | 
^g4 g4 a2g2 f2e6  | ^g2a2 {=b}g2f2 e2e2 ^d2{f}e6  | 
w:  ka tin *  dir  *  cism_  |  ü  *  *  cân  *  *  gel    | 
z4 ^g2f2 e2^d2 f2e6  | z4 e2.f4.e4.f6  | \
w:  SAZ  |  Gel_ ar tık  gel   | 
e2g2 f2f2 e2e2 f2e4d2  | 
w:  gel  *  *  ey  *  rûh_ *  i   | 
d2f2 e4 d2c3=Bc4cd  | e4 d2e4c4d6  | \
w:  re *  vân  *  gel   *  *  SAZ  |  *  Gel  ar tık  gel   | 
c2d2 e2f2 g2f2 e2d2 c2=B2  | 
w:  gel  *  ey  *  *  rûh_ *  i   | 
c2=B2 A4 ^G2A8-A2  | |


